X:117
T:Plymouth Assembly
M:C
L:1/8
B:Thompson's Compleat Collection of 200 Favourite Country Dances, vol. 3 (London, 1773)
Z:Transcribed and edited by Flynn Titford-Mock, 2007
Z:abc's:AK/Fiddler's Companion
K:G
DBAG F2 ED | dBAG F2 ED | cdec BcdB | cAGF G2 [G,2G2] :|
|: (B,D).D.D (CE).E.E | (A,F).F.F GDB,G, | (B,D).D.D (CE).E.E | A,cAF G2 [G,2G2] :|
|: .b(gfg) .d(gfg) | .d(BAG) .A(FED) | .b(gfg) .d(gfg) | dcBA G4 :|

